!!!COM: Stadler, Maximilian
!!!CDT: 1748///-1833///
!!!COA: Haydn, Joseph
!!!OTL@@IT: Gioco filarmonico
!!!OTL@EN: Philharmonic Joke
!!!OTA@@IT: o sia maniera facile per comporre un infinito numero de minuetti e trio anche senza sapere il contrapunto
!!!OTA@EN: or the Art of Composing an Infinite Number of Minutes Without the Least Knowledge of Counterpoint
!!!PDT: 1781///
!!!PPR: Artaria
!!!SML: Gesellschaft der Musikfreundes, Vienna
!!!PPR2: Luigi Marescalchi
!!!PPP2: Napoli
!!!PDT2: 1790///
**kern	**kern	**kern
*Icello	*Ivioln	*Ivioln
*>[A,A,B,B,A]	*>[A,A,B,B,A]	*>[A,A,B,B,A]
*>norep[A,B]	*>norep[A,B]	*>norep[A,B]
*>A	*>A	*>A
*k[]	*k[]	*k[]
*M3/4	*M3/4	*M3/4
*MM120	*MM120	*MM120
!!section:  I
!!measure:  A
!!diceroll: 10
=98	=98	=98
4C	4e	4cc
4E	4g	16b
.	.	8.cc
4E	4g	16b
.	.	8.cc
!!section:  I
!!measure:  B
!!diceroll: 3
=6	=6	=6
4A	2cc	8ff
.	.	8cc
4F	.	8aa
.	.	8ff
4E	4cc	4gg
!!section:  I
!!measure:  C
!!diceroll: 9
=114	=114	=114
4E	4c	8gg
.	.	16ff
.	.	16gg
4F	4c	8aa
.	.	8a
4r	4r	8ff
.	.	8dd
!!section:  I
!!measure:  D
!!diceroll: 11
=61	=61	=61
4r	4e	4g
4GG	4d	4f
4C	4c	4e
!!section:  I
!!measure:  E
!!diceroll: 5
=161	=161	=161
4A	4f#	12cc
.	.	12b
.	.	12cc
4F#	4A	12aa
.	.	12ff#
.	.	12dd
4D	4d	12aa
.	.	12ff#
.	.	12dd
!!section:  I
!!measure:  F
!!diceroll: 6
=97	=97	=97
4BB	4d	16r
.	.	16d
.	.	16e
.	.	16f#
4r	4r	16g
.	.	16a
.	.	16b
.	.	16cc
4r	4r	16dd
.	.	16ee
.	.	16ff#
.	.	16gg
!!section:  I
!!measure:  G
!!diceroll: 5
=159	=159	=159
4C	16b	16dd
.	16a	16cc
.	16cc	16ee
.	16a	16cc
4D	4g	4b
4DD	4f#	4a
!!section:  I
!!measure:  H
!!diceroll: 7
=91	=91	=91
8GG	2.g	2.g
8G	.	.
8D	.	.
8BB	.	.
4GG	.	.
*>B	*>B	*>B
!!section:  II
!!measure:  A
!!diceroll: 8
=16	=16	=16
4C#	12c#	2a
.	12e	.
.	12a	.
4C#	12c#	.
.	12e	.
.	12a	.
4C#	12c#	16aa
.	.	16gg
.	12e	.
.	.	16ff
.	12a	.
.	.	16ee
!!section:  II
!!measure:  B
!!diceroll: 9
=88	=88	=88
4F	2.A	8aa
.	.	8dd
4G	.	16cc#
.	.	16dd
.	.	16ee
.	.	16cc#
4F	.	4dd
!!section:  II
!!measure:  C
!!diceroll: 2
=26	=26	=26
4r	4r	8.ff
.	.	16aa
4F	4a	8.dd
.	.	16ff
4G	4f	8.b
.	.	16dd
!!section:  II
!!measure:  D
!!diceroll: 5
=34	=34	=34
4E	2.g	8gg
.	.	8cc
4F	.	16b
.	.	16cc
.	.	16dd
.	.	16b
4E	.	4cc
!!section:  II
!!measure:  E
!!diceroll: 7
=101	=101	=101
4F	4d	12aa
.	.	12ee
.	.	12ff
4r	4r	12aa
.	.	12ee
.	.	12ff
4r	4r	12aa
.	.	12ff
.	.	12dd
!!section:  II
!!measure:  F
!!diceroll: 10
=38	=38	=38
4E	4cc	8gg
.	.	8ee
4D	4b	8ff
.	.	8dd
4C	4cc	8ee
.	.	8cc
!!section:  II
!!measure:  G
!!diceroll: 4
=145	=145	=145
4F	8.g	16ee
.	.	16dd
.	.	16ff
.	16f	16dd
4G	4e	4cc
4GG	4d	4b
!!section:  II
!!measure:  H
!!diceroll: 7
=151	=151	=151
4C	2.c	2.cc
8.GG	.	.
16EE	.	.
4CC	.	.
*-	*-	*-
!!!END: 2004/11/01/
